categories/16/applications-science.svg

<?xml version="1.0" encoding="UTF-8" standalone="no"?>
<svg
   xmlns:dc="http://purl.org/dc/elements/1.1/"
   xmlns:cc="http://creativecommons.org/ns#"
   xmlns:rdf="http://www.w3.org/1999/02/22-rdf-syntax-ns#"
   xmlns:svg="http://www.w3.org/2000/svg"
   xmlns="http://www.w3.org/2000/svg"
   xmlns:sodipodi="http://sodipodi.sourceforge.net/DTD/sodipodi-0.dtd"
   xmlns:inkscape="http://www.inkscape.org/namespaces/inkscape"
   height="15.996"
   width="16"
   version="1.1"
   id="svg865"
   sodipodi:docname="applications-science.svg"
   inkscape:version="0.92.2 (unknown)">
  <metadata
     id="metadata871">
    <rdf:RDF>
      <cc:Work
         rdf:about="">
        <dc:format>image/svg+xml</dc:format>
        <dc:type
           rdf:resource="http://purl.org/dc/dcmitype/StillImage" />
      </cc:Work>
    </rdf:RDF>
  </metadata>
  <defs
     id="defs869" />
  <sodipodi:namedview
     pagecolor="#808080"
     bordercolor="#808080666"
     borderopacity="1"
     objecttolerance="10"
     gridtolerance="10"
     guidetolerance="10"
     inkscape:pageopacity="0"
     inkscape:pageshadow="2"
     inkscape:window-width="1920"
     inkscape:window-height="1013"
     id="namedview867"
     showgrid="true"
     inkscape:zoom="59.511006"
     inkscape:cx="8.0007153"
     inkscape:cy="8.0265003"
     inkscape:window-x="0"
     inkscape:window-y="34"
     inkscape:window-maximized="1"
     inkscape:current-layer="g863">
    <inkscape:grid
       type="xygrid"
       id="grid814" />
  </sodipodi:namedview>
  <g
     transform="translate(-832.002 -444.004)"
     id="g863">
    <path
       color="#000"
       d="M837.5 445c-.5 0-.5.5-.5.5s0 .5.5.5h.5l.018 2.877a1 1 0 0 1-.159.539c-.132.208-.235.367-.416.678-.267.46-.598 1.048-.959 1.693a514.53 514.53 0 0 0-2.199 3.986c-.386.708-.383 1.677.203 2.407l.022.027c.422.563 1.12.74 1.818.74h7.348c.7 0 1.4-.176 1.822-.74l.022-.027c.584-.729.586-1.699.199-2.407l-.022-.039c-1.123-2.287-2.428-4.128-3.558-6.39a1 1 0 0 1-.106-.448L842 446h.5c.5 0 .5-.5.5-.5s0-.5-.5-.5zm1.518 1.047h2.015v3.107a1 1 0 0 0 .102.44c1.201 2.457 2.573 4.343 3.685 6.617a.807.807 0 0 0 .02.04c.24.44.254.884-.1 1.315l-.035.045c-.144.199-.489.336-1.03.336h-7.347c-.54 0-.885-.137-1.03-.336a.912.912 0 0 0-.032-.045c-.354-.431-.342-.875-.102-1.314a513.045 513.045 0 0 1 2.193-3.977c.359-.641.688-1.227.952-1.681.263-.454.49-.813.517-.85a1 1 0 0 0 .192-.59z"
       fill="#808080"
       font-family="sans-serif"
       font-weight="400"
       overflow="visible"
       style="line-height:normal;font-variant-ligatures:normal;font-variant-position:normal;font-variant-caps:normal;font-variant-numeric:normal;font-variant-alternates:normal;font-feature-settings:normal;text-indent:0;text-align:start;text-decoration-line:none;text-decoration-style:solid;text-decoration-color:#000;text-transform:none;text-orientation:mixed;shape-padding:0;isolation:auto;mix-blend-mode:normal;fill:#808080;fill-opacity:1"
       white-space="normal"
       id="path859" />
    <path
       color="#000"
       d="M838.219 453.001L836 457h8l-2.219-3.999z"
       fill="#808080"
       opacity=".25"
       overflow="visible"
       style="marker:none;fill:#808080;fill-opacity:1"
       id="path861" />
  </g>
</svg>

<svg xmlns="http://www.w3.org/2000/svg" width="16" height="15.996" version="1.1">
 <g transform="translate(-832,-444)">
  <path style="fill:#808080" d="M 837.5,445 C 837,445 837,445.5 837,445.5 837,445.5 837,446 837.5,446 H 838 L 838.02,448.88 A 1,1 0 0 1 837.86,449.42 C 837.73,449.62 837.62,449.78 837.44,450.09 837.18,450.55 836.85,451.14 836.48,451.79 A 514.53,514.53 0 0 0 834.29,455.77 C 833.9,456.48 833.9,457.45 834.49,458.18 L 834.51,458.21 C 834.93,458.77 835.63,458.95 836.33,458.95 H 843.68 C 844.38,458.95 845.08,458.77 845.5,458.21 L 845.52,458.18 C 846.1,457.45 846.11,456.48 845.72,455.77 L 845.7,455.73 C 844.57,453.45 843.27,451.61 842.14,449.34 A 1,1 0 0 1 842.03,448.9 L 842,446 H 842.5 C 843,446 843,445.5 843,445.5 843,445.5 843,445 842.5,445 Z M 839.02,446.05 H 841.03 V 449.15 A 1,1 0 0 0 841.13,449.59 C 842.34,452.05 843.71,453.94 844.82,456.21 A 0.807,0.807 0 0 0 844.84,456.25 C 845.08,456.69 845.09,457.14 844.74,457.57 L 844.7,457.61 C 844.56,457.81 844.22,457.95 843.67,457.95 H 836.33 C 835.79,457.95 835.44,457.81 835.3,457.61 A 0.912,0.912 0 0 0 835.27,457.57 C 834.91,457.14 834.92,456.69 835.16,456.25 A 513.04,513.04 0 0 1 837.36,452.28 C 837.72,451.63 838.04,451.05 838.31,450.59 838.57,450.14 838.8,449.78 838.83,449.74 A 1,1 0 0 0 839.02,449.15 Z"/>
  <path style="opacity:0.25;fill:#808080" d="M 838.22,453 836,457 H 844 L 841.78,453 Z"/>
 </g>
</svg>
